src/icons/hds/ui/face-smile.svg

<svg xmlns="http://www.w3.org/2000/svg" width="24" height="24" viewBox="0 0 24 24">
  <g fill="none" fill-rule="evenodd">
    <rect width="24" height="24"/>
    <path fill="currentColor" d="M12,2 C17.5228475,2 22,6.4771525 22,12 C22,17.5228475 17.5228475,22 12,22 C6.4771525,22 2,17.5228475 2,12 C2,6.4771525 6.4771525,2 12,2 Z M12,4 C7.581722,4 4,7.581722 4,12 C4,16.418278 7.581722,20 12,20 C16.418278,20 20,16.418278 20,12 C20,7.581722 16.418278,4 12,4 Z M8.89722321,13.5584227 C9.47796663,14.738412 10.6738238,15.5 12.0054155,15.5 C13.2845748,15.5 14.4387557,14.7972654 15.0426223,13.6950091 L15.1051971,13.5753952 L16.8948029,14.4683179 C15.9756835,16.3104273 14.0965796,17.5 12.0054155,17.5 C9.95612163,17.5 8.11103635,16.3575752 7.17312284,14.5795904 L7.10277679,14.4415773 L8.89722321,13.5584227 Z M8.5,8 C9.32842712,8 10,8.67157288 10,9.5 C10,10.3284271 9.32842712,11 8.5,11 C7.67157288,11 7,10.3284271 7,9.5 C7,8.67157288 7.67157288,8 8.5,8 Z M15.5,8 C16.3284271,8 17,8.67157288 17,9.5 C17,10.3284271 16.3284271,11 15.5,11 C14.6715729,11 14,10.3284271 14,9.5 C14,8.67157288 14.6715729,8 15.5,8 Z"/>
  </g>
</svg>

<svg viewBox="0 0 24 24" role="img" xmlns="http://www.w3.org/2000/svg"><g fill="none" fill-rule="evenodd"><path d="M0 0h24v24H0z"/><path d="M12 2c5.523 0 10 4.477 10 10s-4.477 10-10 10S2 17.523 2 12 6.477 2 12 2zm0 2a8 8 0 100 16 8 8 0 000-16zm-3.103 9.558a3.463 3.463 0 003.108 1.942c1.28 0 2.434-.703 3.038-1.805l.062-.12 1.79.893a5.463 5.463 0 01-4.89 3.032 5.462 5.462 0 01-4.832-2.92l-.07-.138 1.794-.884zM8.5 8a1.5 1.5 0 110 3 1.5 1.5 0 010-3zm7 0a1.5 1.5 0 110 3 1.5 1.5 0 010-3z" fill="currentColor"/></g></svg>
